X:23035
T:Wellerman, The
R:Shanty
C:Trad.
O:New Zealand
Z:Paul Hardy's Session Tunebook 2022 (see www.paulhardy.net). Creative Commons cc by-nc-sa licenced.
N:See two-part and words version in Paul Hardy's Songs Tunebook.
M:4/4
L:1/8
Q:1/4=130
K:D
F2|"Bm"B,2B,B, B,2D2|F2F2 F2FF|"Em"G2EE E2GG|"Bm"BBF2 F2|
zF|"Bm"B,2CC D2EE|"F#m"FFF2 F2FF|"Bm"F2 E2 "F#m"DD C2|"Bm"B,6||
"^Chorus"z2|"Bm"B4 "Em"B3G|"F#m"AAF2 F3F|"Em"G2E2 EFG2|"Bm"B2F2 F2|
z2|"Bm"B4 "Em"B2GG|"F#m"AA F2 F3F|"Bm"F2E2 "F#m"D2C2|"Bm"B,6|]

